X: 28
T: Lark In The Morning, The
Z: An Lacha mór
S: https://thesession.org/tunes/62#setting54235
R: jig
M: 6/8
L: 1/8
K: Fmaj
|:cAc cAc|dBd dfd|cAc cAc|agf dfd|
cAc cAc|dBd dfd|fga c'ag|fdd dfd:|
|:fga c'ag|d'aa c'ag|fga c'ag|fdd dfd|
fga c'ag|d'aa c'ag|bag agf|gfd dfd:|
|:faa aga|aga aga|faa aga|gfd dfd|
faa aga|aga fga|bag agf|gfd dfd:|
|:cff aff|gff aff|cff aff|gfd dfd|
cff aff|gfd fga|bag agf|gfd dfd:|

%-------------------- TUNE SEPARATOR --------------------%

